(BROK CNC - Calibration Test v4 - 12x12")
(Generated: 2025-12-22 12:31)
(Everlast 102i @ 70A, 55 PSI)
(Feed:50 Pierce:0.15 Cut:0.08)
()
(v1.6-af)
G20G90
G0X0.Y0.
H0

(Hole D=0.25" - CCW - lead inside)
G0X1.5875Y1.5000
G92Z0
G38.2Z-5F50
G38.4Z0.5F25
G92Z0
G0Z0.15
M3
G4P0.70
G0Z0.08
H1
G3X1.6250Y1.5000I0.0187J0.0000F50
G3X1.3750Y1.5000I-0.1250J0.0000F50
G3X1.6250Y1.5000I0.1250J0.0000F50
(Overcut 0.375" inside)
G3X1.3763Y1.5176I-0.1250J0.0000F50
G1X1.4134Y1.5123F50
H0
M5
G0Z1
(Hole D=0.375" - CCW - lead inside)
G0X3.1313Y1.5000
G92Z0
G38.2Z-5F50
G38.4Z0.5F25
G92Z0
G0Z0.15
M3
G4P0.70
G0Z0.08
H1
G3X3.1875Y1.5000I0.0281J0.0000F50
G3X2.8125Y1.5000I-0.1875J0.0000F50
G3X3.1875Y1.5000I0.1875J0.0000F50
(Overcut 0.375" inside)
G3X2.9220Y1.6705I-0.1875J0.0000F50
G1X2.9454Y1.6193F50
H0
M5
G0Z1
(Hole D=0.5" - CCW - lead inside)
G0X4.6750Y1.5000
G92Z0
G38.2Z-5F50
G38.4Z0.5F25
G92Z0
G0Z0.15
M3
G4P0.70
G0Z0.08
H1
G3X4.7500Y1.5000I0.0375J0.0000F50
G3X4.2500Y1.5000I-0.2500J0.0000F50
G3X4.7500Y1.5000I0.2500J0.0000F50
(Overcut 0.375" inside)
G3X4.5177Y1.7494I-0.2500J0.0000F50
G1X4.5124Y1.6746F50
H0
M5
G0Z1
(Hole D=0.75" - CCW - lead inside)
G0X6.2750Y1.5000
G92Z0
G38.2Z-5F50
G38.4Z0.5F25
G92Z0
G0Z0.15
M3
G4P0.70
G0Z0.08
H1
G3X6.3750Y1.5000I0.0500J0.0000F50
G3X5.6250Y1.5000I-0.3750J0.0000F50
G3X6.3750Y1.5000I0.3750J0.0000F50
(Overcut 0.375" inside)
G3X6.2026Y1.8156I-0.3750J0.0000F50
G1X6.1486Y1.7314F50
H0
M5
G0Z1
(Hole D=1.0" - CCW - lead inside)
G0X7.9000Y1.5000
G92Z0
G38.2Z-5F50
G38.4Z0.5F25
G92Z0
G0Z0.15
M3
G4P0.70
G0Z0.08
H1
G3X8.0000Y1.5000I0.0500J0.0000F50
G3X7.0000Y1.5000I-0.5000J0.0000F50
G3X8.0000Y1.5000I0.5000J0.0000F50
(Overcut 0.375" inside)
G3X7.8658Y1.8408I-0.5000J0.0000F50
G1X7.7927Y1.7727F50
H0
M5
G0Z1
(Hole D=1.25" - CCW - lead inside)
G0X9.5250Y1.5000
G92Z0
G38.2Z-5F50
G38.4Z0.5F25
G92Z0
G0Z0.15
M3
G4P0.70
G0Z0.08
H1
G3X9.6250Y1.5000I0.0500J0.0000F50
G3X8.3750Y1.5000I-0.6250J0.0000F50
G3X9.6250Y1.5000I0.6250J0.0000F50
(Overcut 0.375" inside)
G3X9.5158Y1.8529I-0.6250J0.0000F50
G1X9.4333Y1.7964F50
H0
M5
G0Z1
(Hole D=1.5" - CCW - lead inside)
G0X11.1500Y1.5000
G92Z0
G38.2Z-5F50
G38.4Z0.5F25
G92Z0
G0Z0.15
M3
G4P0.70
G0Z0.08
H1
G3X11.2500Y1.5000I0.0500J0.0000F50
G3X9.7500Y1.5000I-0.7500J0.0000F50
G3X11.2500Y1.5000I0.7500J0.0000F50
(Overcut 0.375" inside)
G3X11.1582Y1.8596I-0.7500J0.0000F50
G1X11.0704Y1.8116F50
H0
M5
G0Z1
(Spiral test - CCW - 5 turns)
G0X2.5000Y6.0000
G92Z0
G38.2Z-5F50
G38.4Z0.5F25
G92Z0
G0Z0.15
M3
G4P0.70
G0Z0.08
H1
G1X2.7500Y6.0000F50
G1X2.7530Y6.0446F50
G1X2.7480Y6.0903F50
G1X2.7345Y6.1354F50
G1X2.7128Y6.1786F50
G1X2.6830Y6.2181F50
G1X2.6458Y6.2526F50
G1X2.6021Y6.2806F50
G1X2.5531Y6.3009F50
G1X2.5000Y6.3125F50
G1X2.4445Y6.3146F50
G1X2.3884Y6.3067F50
G1X2.3333Y6.2887F50
G1X2.2813Y6.2607F50
G1X2.2340Y6.2232F50
G1X2.1933Y6.1771F50
G1X2.1607Y6.1235F50
G1X2.1375Y6.0639F50
G1X2.1250Y6.0000F50
G1X2.1239Y5.9337F50
G1X2.1346Y5.8670F50
G1X2.1572Y5.8021F50
G1X2.1915Y5.7411F50
G1X2.2366Y5.6861F50
G1X2.2917Y5.6392F50
G1X2.3551Y5.6019F50
G1X2.4252Y5.5760F50
G1X2.5000Y5.5625F50
G1X2.5772Y5.5623F50
G1X2.6544Y5.5758F50
G1X2.7292Y5.6031F50
G1X2.7991Y5.6436F50
G1X2.8617Y5.6965F50
G1X2.9150Y5.7604F50
G1X2.9568Y5.8337F50
G1X2.9856Y5.9144F50
G1X3.0000Y6.0000F50
G1X2.9992Y6.0880F50
G1X2.9829Y6.1758F50
G1X2.9511Y6.2604F50
G1X2.9043Y6.3392F50
G1X2.8437Y6.4096F50
G1X2.7708Y6.4691F50
G1X2.6876Y6.5155F50
G1X2.5965Y6.5471F50
G1X2.5000Y6.5625F50
G1X2.4011Y6.5608F50
G1X2.3029Y6.5416F50
G1X2.2083Y6.5052F50
G1X2.1206Y6.4522F50
G1X2.0425Y6.3839F50
G1X1.9768Y6.3021F50
G1X1.9257Y6.2090F50
G1X1.8913Y6.1073F50
G1X1.8750Y6.0000F50
G1X1.8777Y5.8903F50
G1X1.8996Y5.7815F50
G1X1.9407Y5.6771F50
G1X1.9999Y5.5804F50
G1X2.0759Y5.4946F50
G1X2.1667Y5.4226F50
G1X2.2696Y5.3670F50
G1X2.3818Y5.3298F50
G1X2.5000Y5.3125F50
G1X2.6206Y5.3161F50
G1X2.7399Y5.3409F50
G1X2.8542Y5.3866F50
G1X2.9598Y5.4521F50
G1X3.0533Y5.5358F50
G1X3.1315Y5.6354F50
G1X3.1917Y5.7482F50
G1X3.2318Y5.8710F50
G1X3.2500Y6.0000F50
G1X3.2454Y6.1314F50
G1X3.2178Y6.2613F50
G1X3.1676Y6.3854F50
G1X3.0958Y6.4999F50
G1X3.0044Y6.6011F50
G1X2.8958Y6.6856F50
G1X2.7731Y6.7504F50
G1X2.6399Y6.7933F50
G1X2.5000Y6.8125F50
G1X2.3577Y6.8070F50
G1X2.2174Y6.7766F50
G1X2.0833Y6.7217F50
G1X1.9599Y6.6437F50
G1X1.8510Y6.5446F50
G1X1.7603Y6.4271F50
G1X1.6908Y6.2945F50
G1X1.6451Y6.1507F50
G1X1.6250Y6.0000F50
G1X1.6315Y5.8469F50
G1X1.6647Y5.6960F50
G1X1.7242Y5.5521F50
G1X1.8084Y5.4197F50
G1X1.9152Y5.3031F50
G1X2.0417Y5.2061F50
G1X2.1841Y5.1321F50
G1X2.3384Y5.0836F50
G1X2.5000Y5.0625F50
G1X2.6640Y5.0699F50
G1X2.8254Y5.1060F50
G1X2.9792Y5.1701F50
G1X3.1205Y5.2606F50
G1X3.2448Y5.3751F50
G1X3.3480Y5.5104F50
G1X3.4266Y5.6627F50
G1X3.4780Y5.8276F50
G1X3.5000Y6.0000F50
G1X3.4916Y6.1749F50
G1X3.4527Y6.3468F50
G1X3.3841Y6.5104F50
G1X3.2873Y6.6606F50
G1X3.1651Y6.7926F50
G1X3.0208Y6.9021F50
G1X2.8586Y6.9854F50
G1X2.6833Y7.0395F50
G1X2.5000Y7.0625F50
G1X2.3143Y7.0532F50
G1X2.1319Y7.0115F50
G1X1.9583Y6.9382F50
G1X1.7992Y6.8352F50
G1X1.6595Y6.7053F50
G1X1.5438Y6.5521F50
G1X1.4559Y6.3800F50
G1X1.3989Y6.1941F50
G1X1.3750Y6.0000F50
G1X1.3853Y5.8034F50
G1X1.4298Y5.6105F50
G1X1.5077Y5.4271F50
G1X1.6169Y5.2590F50
G1X1.7545Y5.1116F50
G1X1.9167Y4.9896F50
G1X2.0986Y4.8972F50
G1X2.2950Y4.8374F50
G1X2.5000Y4.8125F50
G1X2.7074Y4.8237F50
G1X2.9109Y4.8711F50
G1X3.1042Y4.9536F50
G1X3.2812Y5.0690F50
G1X3.4363Y5.2144F50
G1X3.5645Y5.3854F50
G1X3.6616Y5.5772F50
G1X3.7242Y5.7841F50
G1X3.7500Y6.0000F50
G1X3.7378Y6.2183F50
G1X3.6877Y6.4323F50
G1X3.6006Y6.6354F50
G1X3.4788Y6.8213F50
G1X3.3258Y6.9842F50
G1X3.1458Y7.1186F50
G1X2.9442Y7.2203F50
G1X2.7267Y7.2857F50
G1X2.5000Y7.3125F50
G1X2.2709Y7.2994F50
G1X2.0463Y7.2464F50
G1X1.8333Y7.1547F50
G1X1.6385Y7.0267F50
G1X1.4680Y6.8660F50
G1X1.3273Y6.6771F50
G1X1.2210Y6.4655F50
G1X1.1527Y6.2376F50
G1X1.1250Y6.0000F50
G1X1.1391Y5.7600F50
G1X1.1949Y5.5250F50
G1X1.2912Y5.3021F50
G1X1.4254Y5.0983F50
G1X1.5938Y4.9201F50
G1X1.7917Y4.7731F50
G1X2.0131Y4.6622F50
G1X2.2516Y4.5912F50
G1X2.5000Y4.5625F50
G1X2.7508Y4.5775F50
G1X2.9964Y4.6361F50
G1X3.2292Y4.7370F50
G1X3.4419Y4.8775F50
G1X3.6278Y5.0537F50
G1X3.7810Y5.2604F50
G1X3.8965Y5.4917F50
G1X3.9704Y5.7407F50
G1X4.0000Y6.0000F50
H0
M5
G0Z1
(Large Circle D=3" - CCW - lead inside)
G0X7.4000Y3.5000
G92Z0
G38.2Z-5F50
G38.4Z0.5F25
G92Z0
G0Z0.15
M3
G4P0.70
G0Z0.08
H1
G3X7.5000Y3.5000I0.0500J0.0000F50
G3X4.5000Y3.5000I-1.5000J0.0000F50
G3X7.5000Y3.5000I1.5000J0.0000F50
(Overcut 0.375" inside)
G3X7.4534Y3.8711I-1.5000J0.0000F50
G1X7.3565Y3.8464F50
H0
M5
G0Z1
(Star 5-point - CW - lead inside)
G0X6.0000Y9.5000
G92Z0
G38.2Z-5F50
G38.4Z0.5F25
G92Z0
G0Z0.15
M3
G4P0.70
G0Z0.08
H1
G1X6.0000Y10.7000F50
G1X6.2939Y9.9045F50
G1X7.1413Y9.8708F50
G1X6.4755Y9.3455F50
G1X6.7053Y8.5292F50
G1X6.0000Y9.0000F50
G1X5.2947Y8.5292F50
G1X5.5245Y9.3455F50
G1X4.8587Y9.8708F50
G1X5.7061Y9.9045F50
G1X6.0000Y10.7000F50
(Overcut 0.375" inside)
G1X6.1300Y10.3482F50
G1X6.0000Y9.5000F50
H0
M5
G0Z1
(Oval 3.0x1.5" - CW - lead inside)
G0X9.0000Y9.0000
G92Z0
G38.2Z-5F50
G38.4Z0.5F25
G92Z0
G0Z0.15
M3
G4P0.70
G0Z0.08
H1
G1X10.5000Y9.0000F50
G1X10.4943Y8.9346F50
G1X10.4772Y8.8698F50
G1X10.4489Y8.8059F50
G1X10.4095Y8.7435F50
G1X10.3595Y8.6830F50
G1X10.2990Y8.6250F50
G1X10.2287Y8.5698F50
G1X10.1491Y8.5179F50
G1X10.0607Y8.4697F50
G1X9.9642Y8.4255F50
G1X9.8604Y8.3856F50
G1X9.7500Y8.3505F50
G1X9.6339Y8.3203F50
G1X9.5130Y8.2952F50
G1X9.3882Y8.2756F50
G1X9.2605Y8.2614F50
G1X9.1307Y8.2529F50
G1X9.0000Y8.2500F50
G1X8.8693Y8.2529F50
G1X8.7395Y8.2614F50
G1X8.6118Y8.2756F50
G1X8.4870Y8.2952F50
G1X8.3661Y8.3203F50
G1X8.2500Y8.3505F50
G1X8.1396Y8.3856F50
G1X8.0358Y8.4255F50
G1X7.9393Y8.4697F50
G1X7.8509Y8.5179F50
G1X7.7713Y8.5698F50
G1X7.7010Y8.6250F50
G1X7.6405Y8.6830F50
G1X7.5905Y8.7435F50
G1X7.5511Y8.8059F50
G1X7.5228Y8.8698F50
G1X7.5057Y8.9346F50
G1X7.5000Y9.0000F50
G1X7.5057Y9.0654F50
G1X7.5228Y9.1302F50
G1X7.5511Y9.1941F50
G1X7.5905Y9.2565F50
G1X7.6405Y9.3170F50
G1X7.7010Y9.3750F50
G1X7.7713Y9.4302F50
G1X7.8509Y9.4821F50
G1X7.9393Y9.5303F50
G1X8.0358Y9.5745F50
G1X8.1396Y9.6144F50
G1X8.2500Y9.6495F50
G1X8.3661Y9.6797F50
G1X8.4870Y9.7048F50
G1X8.6118Y9.7244F50
G1X8.7395Y9.7386F50
G1X8.8693Y9.7471F50
G1X9.0000Y9.7500F50
G1X9.1307Y9.7471F50
G1X9.2605Y9.7386F50
G1X9.3882Y9.7244F50
G1X9.5130Y9.7048F50
G1X9.6339Y9.6797F50
G1X9.7500Y9.6495F50
G1X9.8604Y9.6144F50
G1X9.9642Y9.5745F50
G1X10.0607Y9.5303F50
G1X10.1491Y9.4821F50
G1X10.2287Y9.4302F50
G1X10.2990Y9.3750F50
G1X10.3595Y9.3170F50
G1X10.4095Y9.2565F50
G1X10.4489Y9.1941F50
G1X10.4772Y9.1302F50
G1X10.4943Y9.0654F50
G1X10.5000Y9.0000F50
(Overcut 0.375" inside)
G1X10.4174Y8.7546F50
G1X9.0000Y9.0000F50
H0
M5
G0Z1
(=== BORDER - Cut Last ===)
(12x12 Border - CW)
G0X0.1500Y0.1500
G92Z0
G38.2Z-5F50
G38.4Z0.5F25
G92Z0
G0Z0.15
M3
G4P0.70
G0Z0.08
H1
G1X0.2500Y0.2500F50
G1X11.7500Y0.2500F50
G1X11.7500Y11.7500F50
G1X0.2500Y11.7500F50
G1X0.2500Y0.2500F50
(Overcut 0.375")
G1X0.6250Y0.2500F50
G1X0.5250Y0.1500F50
H0
M5
G0Z1
G0X0Y0
M30
(PS50.00)