(BROK CNC - Curves & Circles Test - 12x12")
(Generated: 2025-12-22 11:46)
(Machine: Crossfire Pro)
(Plasma: Everlast 102i @ 70A, 55 PSI)
(Post: FireControl v1.6 compatible)
()
(Feed Rate: 50 IPM)
(Pierce Delay: 0.7 sec)
(Pierce Height: 0.15")
(Cut Height: 0.06")
(Kerf: 0.079" / 2.0mm)
()
(v1.6-af)
G90 G94
G17
G20
F50
H0

(Hole D=0.25" - CCW)
G0 X1.6625 Y1.5000
G92 Z0.
G38.2 Z-5.0 F100.0
G38.4 Z0.5 F20.0
G92 Z0.0
G0 Z0.02
G92 Z0.0
G0 Z0.15
M3
G4 P0.7
G1 Z0.06 F50
H1
G3 X1.6250 Y1.5000 I-0.0187 J0.0000 F50
G3 X1.3750 Y1.5000 I-0.1250 J0.0000 F50
G3 X1.6250 Y1.5000 I0.1250 J0.0000 F50
(Overcut 0.375")
G3 X1.3763 Y1.5176 I-0.1250 J0.0000 F50
M5
H0
G0 Z1.0
(Hole D=0.375" - CCW)
G0 X3.2437 Y1.5000
G92 Z0.
G38.2 Z-5.0 F100.0
G38.4 Z0.5 F20.0
G92 Z0.0
G0 Z0.02
G92 Z0.0
G0 Z0.15
M3
G4 P0.7
G1 Z0.06 F50
H1
G3 X3.1875 Y1.5000 I-0.0281 J0.0000 F50
G3 X2.8125 Y1.5000 I-0.1875 J0.0000 F50
G3 X3.1875 Y1.5000 I0.1875 J0.0000 F50
(Overcut 0.375")
G3 X2.9220 Y1.6705 I-0.1875 J0.0000 F50
M5
H0
G0 Z1.0
(Hole D=0.5" - CCW)
G0 X4.8250 Y1.5000
G92 Z0.
G38.2 Z-5.0 F100.0
G38.4 Z0.5 F20.0
G92 Z0.0
G0 Z0.02
G92 Z0.0
G0 Z0.15
M3
G4 P0.7
G1 Z0.06 F50
H1
G3 X4.7500 Y1.5000 I-0.0375 J0.0000 F50
G3 X4.2500 Y1.5000 I-0.2500 J0.0000 F50
G3 X4.7500 Y1.5000 I0.2500 J0.0000 F50
(Overcut 0.375")
G3 X4.5177 Y1.7494 I-0.2500 J0.0000 F50
M5
H0
G0 Z1.0
(Hole D=0.75" - CCW)
G0 X6.4750 Y1.5000
G92 Z0.
G38.2 Z-5.0 F100.0
G38.4 Z0.5 F20.0
G92 Z0.0
G0 Z0.02
G92 Z0.0
G0 Z0.15
M3
G4 P0.7
G1 Z0.06 F50
H1
G3 X6.3750 Y1.5000 I-0.0500 J0.0000 F50
G3 X5.6250 Y1.5000 I-0.3750 J0.0000 F50
G3 X6.3750 Y1.5000 I0.3750 J0.0000 F50
(Overcut 0.375")
G3 X6.2026 Y1.8156 I-0.3750 J0.0000 F50
M5
H0
G0 Z1.0
(Hole D=1.0" - CCW)
G0 X8.1000 Y1.5000
G92 Z0.
G38.2 Z-5.0 F100.0
G38.4 Z0.5 F20.0
G92 Z0.0
G0 Z0.02
G92 Z0.0
G0 Z0.15
M3
G4 P0.7
G1 Z0.06 F50
H1
G3 X8.0000 Y1.5000 I-0.0500 J0.0000 F50
G3 X7.0000 Y1.5000 I-0.5000 J0.0000 F50
G3 X8.0000 Y1.5000 I0.5000 J0.0000 F50
(Overcut 0.375")
G3 X7.8658 Y1.8408 I-0.5000 J0.0000 F50
M5
H0
G0 Z1.0
(Hole D=1.25" - CCW)
G0 X9.7250 Y1.5000
G92 Z0.
G38.2 Z-5.0 F100.0
G38.4 Z0.5 F20.0
G92 Z0.0
G0 Z0.02
G92 Z0.0
G0 Z0.15
M3
G4 P0.7
G1 Z0.06 F50
H1
G3 X9.6250 Y1.5000 I-0.0500 J0.0000 F50
G3 X8.3750 Y1.5000 I-0.6250 J0.0000 F50
G3 X9.6250 Y1.5000 I0.6250 J0.0000 F50
(Overcut 0.375")
G3 X9.5158 Y1.8529 I-0.6250 J0.0000 F50
M5
H0
G0 Z1.0
(Hole D=1.5" - CCW)
G0 X11.3500 Y1.5000
G92 Z0.
G38.2 Z-5.0 F100.0
G38.4 Z0.5 F20.0
G92 Z0.0
G0 Z0.02
G92 Z0.0
G0 Z0.15
M3
G4 P0.7
G1 Z0.06 F50
H1
G3 X11.2500 Y1.5000 I-0.0500 J0.0000 F50
G3 X9.7500 Y1.5000 I-0.7500 J0.0000 F50
G3 X11.2500 Y1.5000 I0.7500 J0.0000 F50
(Overcut 0.375")
G3 X11.1582 Y1.8596 I-0.7500 J0.0000 F50
M5
H0
G0 Z1.0
(Ring R=0.5" - CCW)
G0 X3.1000 Y6.0000
G92 Z0.
G38.2 Z-5.0 F100.0
G38.4 Z0.5 F20.0
G92 Z0.0
G0 Z0.02
G92 Z0.0
G0 Z0.15
M3
G4 P0.7
G1 Z0.06 F50
H1
G3 X3.0000 Y6.0000 I-0.0500 J0.0000 F50
G3 X2.0000 Y6.0000 I-0.5000 J0.0000 F50
G3 X3.0000 Y6.0000 I0.5000 J0.0000 F50
(Overcut 0.375")
G3 X2.8658 Y6.3408 I-0.5000 J0.0000 F50
M5
H0
G0 Z1.0
(Ring R=0.75" - CCW)
G0 X3.3500 Y6.0000
G92 Z0.
G38.2 Z-5.0 F100.0
G38.4 Z0.5 F20.0
G92 Z0.0
G0 Z0.02
G92 Z0.0
G0 Z0.15
M3
G4 P0.7
G1 Z0.06 F50
H1
G3 X3.2500 Y6.0000 I-0.0500 J0.0000 F50
G3 X1.7500 Y6.0000 I-0.7500 J0.0000 F50
G3 X3.2500 Y6.0000 I0.7500 J0.0000 F50
(Overcut 0.375")
G3 X3.1582 Y6.3596 I-0.7500 J0.0000 F50
M5
H0
G0 Z1.0
(Ring R=1.0" - CCW)
G0 X3.6000 Y6.0000
G92 Z0.
G38.2 Z-5.0 F100.0
G38.4 Z0.5 F20.0
G92 Z0.0
G0 Z0.02
G92 Z0.0
G0 Z0.15
M3
G4 P0.7
G1 Z0.06 F50
H1
G3 X3.5000 Y6.0000 I-0.0500 J0.0000 F50
G3 X1.5000 Y6.0000 I-1.0000 J0.0000 F50
G3 X3.5000 Y6.0000 I1.0000 J0.0000 F50
(Overcut 0.375")
G3 X3.4305 Y6.3663 I-1.0000 J0.0000 F50
M5
H0
G0 Z1.0
(Ring R=1.25" - CCW)
G0 X3.8500 Y6.0000
G92 Z0.
G38.2 Z-5.0 F100.0
G38.4 Z0.5 F20.0
G92 Z0.0
G0 Z0.02
G92 Z0.0
G0 Z0.15
M3
G4 P0.7
G1 Z0.06 F50
H1
G3 X3.7500 Y6.0000 I-0.0500 J0.0000 F50
G3 X1.2500 Y6.0000 I-1.2500 J0.0000 F50
G3 X3.7500 Y6.0000 I1.2500 J0.0000 F50
(Overcut 0.375")
G3 X3.6942 Y6.3694 I-1.2500 J0.0000 F50
M5
H0
G0 Z1.0
(Large Circle D=3" - CCW)
G0 X7.6000 Y3.5000
G92 Z0.
G38.2 Z-5.0 F100.0
G38.4 Z0.5 F20.0
G92 Z0.0
G0 Z0.02
G92 Z0.0
G0 Z0.15
M3
G4 P0.7
G1 Z0.06 F50
H1
G3 X7.5000 Y3.5000 I-0.0500 J0.0000 F50
G3 X4.5000 Y3.5000 I-1.5000 J0.0000 F50
G3 X7.5000 Y3.5000 I1.5000 J0.0000 F50
(Overcut 0.375")
G3 X7.4534 Y3.8711 I-1.5000 J0.0000 F50
M5
H0
G0 Z1.0
(Star 5-point - CW)
G0 X6.0000 Y10.8000
G92 Z0.
G38.2 Z-5.0 F100.0
G38.4 Z0.5 F20.0
G92 Z0.0
G0 Z0.02
G92 Z0.0
G0 Z0.15
M3
G4 P0.7
G1 Z0.06 F50
H1
G1 X6.0000 Y10.7000 F50
G1 X6.2939 Y9.9045 F50
G1 X7.1413 Y9.8708 F50
G1 X6.4755 Y9.3455 F50
G1 X6.7053 Y8.5292 F50
G1 X6.0000 Y9.0000 F50
G1 X5.2947 Y8.5292 F50
G1 X5.5245 Y9.3455 F50
G1 X4.8587 Y9.8708 F50
G1 X5.7061 Y9.9045 F50
G1 X6.0000 Y10.7000 F50
(Overcut 0.375")
G1 X6.1300 Y10.3482 F50
M5
H0
G0 Z1.0
(Oval 3.0x1.5" - CW)
G0 X10.6000 Y9.0000
G92 Z0.
G38.2 Z-5.0 F100.0
G38.4 Z0.5 F20.0
G92 Z0.0
G0 Z0.02
G92 Z0.0
G0 Z0.15
M3
G4 P0.7
G1 Z0.06 F50
H1
G1 X10.5000 Y9.0000 F50
G1 X10.4943 Y8.9346 F50
G1 X10.4772 Y8.8698 F50
G1 X10.4489 Y8.8059 F50
G1 X10.4095 Y8.7435 F50
G1 X10.3595 Y8.6830 F50
G1 X10.2990 Y8.6250 F50
G1 X10.2287 Y8.5698 F50
G1 X10.1491 Y8.5179 F50
G1 X10.0607 Y8.4697 F50
G1 X9.9642 Y8.4255 F50
G1 X9.8604 Y8.3856 F50
G1 X9.7500 Y8.3505 F50
G1 X9.6339 Y8.3203 F50
G1 X9.5130 Y8.2952 F50
G1 X9.3882 Y8.2756 F50
G1 X9.2605 Y8.2614 F50
G1 X9.1307 Y8.2529 F50
G1 X9.0000 Y8.2500 F50
G1 X8.8693 Y8.2529 F50
G1 X8.7395 Y8.2614 F50
G1 X8.6118 Y8.2756 F50
G1 X8.4870 Y8.2952 F50
G1 X8.3661 Y8.3203 F50
G1 X8.2500 Y8.3505 F50
G1 X8.1396 Y8.3856 F50
G1 X8.0358 Y8.4255 F50
G1 X7.9393 Y8.4697 F50
G1 X7.8509 Y8.5179 F50
G1 X7.7713 Y8.5698 F50
G1 X7.7010 Y8.6250 F50
G1 X7.6405 Y8.6830 F50
G1 X7.5905 Y8.7435 F50
G1 X7.5511 Y8.8059 F50
G1 X7.5228 Y8.8698 F50
G1 X7.5057 Y8.9346 F50
G1 X7.5000 Y9.0000 F50
G1 X7.5057 Y9.0654 F50
G1 X7.5228 Y9.1302 F50
G1 X7.5511 Y9.1941 F50
G1 X7.5905 Y9.2565 F50
G1 X7.6405 Y9.3170 F50
G1 X7.7010 Y9.3750 F50
G1 X7.7713 Y9.4302 F50
G1 X7.8509 Y9.4821 F50
G1 X7.9393 Y9.5303 F50
G1 X8.0358 Y9.5745 F50
G1 X8.1396 Y9.6144 F50
G1 X8.2500 Y9.6495 F50
G1 X8.3661 Y9.6797 F50
G1 X8.4870 Y9.7048 F50
G1 X8.6118 Y9.7244 F50
G1 X8.7395 Y9.7386 F50
G1 X8.8693 Y9.7471 F50
G1 X9.0000 Y9.7500 F50
G1 X9.1307 Y9.7471 F50
G1 X9.2605 Y9.7386 F50
G1 X9.3882 Y9.7244 F50
G1 X9.5130 Y9.7048 F50
G1 X9.6339 Y9.6797 F50
G1 X9.7500 Y9.6495 F50
G1 X9.8604 Y9.6144 F50
G1 X9.9642 Y9.5745 F50
G1 X10.0607 Y9.5303 F50
G1 X10.1491 Y9.4821 F50
G1 X10.2287 Y9.4302 F50
G1 X10.2990 Y9.3750 F50
G1 X10.3595 Y9.3170 F50
G1 X10.4095 Y9.2565 F50
G1 X10.4489 Y9.1941 F50
G1 X10.4772 Y9.1302 F50
G1 X10.4943 Y9.0654 F50
G1 X10.5000 Y9.0000 F50
G1 X10.4943 Y8.9346 F50
G1 X10.4772 Y8.8698 F50
G1 X10.4489 Y8.8059 F50
G1 X10.4095 Y8.7435 F50
G1 X10.3595 Y8.6830 F50
(Overcut 0.375")
M5
H0
G0 Z1.0
(=== BORDER - Cut Last ===)
(12x12 Border - CW)
G0 X0.1500 Y0.3500
G92 Z0.
G38.2 Z-5.0 F100.0
G38.4 Z0.5 F20.0
G92 Z0.0
G0 Z0.02
G92 Z0.0
G0 Z0.15
M3
G4 P0.7
G1 Z0.06 F50
H1
G1 X0.2500 Y0.2500 F50
G1 X11.7500 Y0.2500 F50
G1 X11.7500 Y11.7500 F50
G1 X0.2500 Y11.7500 F50
G1 X0.2500 Y0.2500 F50
(Overcut 0.375")
G1 X0.6250 Y0.2500 F50
M5
H0
G0 Z1.0

(Program End)
M5
H0
G0 Z1.0
G0 X0 Y0
M30
(PS50)